X: 14658
T: Gan Ainm
R: jig
M: 6/8
K: Gdorian
[G,D]2F|:[G,D]GG [G,G]2A|[DB]AB [G,G]2A|FAc cdc|AcA F2F|
[G,D]GG [G,G]2A|[DB]AB [G,G]2g|afd Bcd|1 cBA G2F|:[2cBA G2f||
|:d[dg][dg] [dg]2a|bab [dg]2g|afd Bcd|cAc f2f|
d[dg][dg] [dg]2a|bab [dg]2g|afd Bcd|1 cBA G2f:|2 cBA G2F||cBA G3||

